; Generated G-code for 4-axis hot wire cutter
; 2D profile cutting mode - left and right sides move together

G17 ; XY plane
G21 ; Set units to millimeters
G90 ; Use absolute positioning
G40 ; Cutter compensation off
G49 ; Tool length offset compensation off
G64 ; Path Control Mode - Continuous mode
G94 ; Set feed rate
G200.0 ; mm/min
M3 S1000 ; Set wire current
G4 P2 ; Wait 2 seconds for wire to heat up

G0 X-5.000 Y21.985 A-5.000 Z21.985; Rapid move to start position
G1 X3.951 Y21.829 A3.951 Z21.829
G1 X3.951 Y21.829 A3.951 Z21.829
G1 X62.046 Y21.813 A62.046 Z21.813
G1 X62.046 Y21.813 A62.046 Z21.813
G1 X63.045 Y21.440 A63.045 Z21.440
G1 X63.988 Y20.940 A63.988 Z20.940
G1 X64.859 Y20.324 A64.859 Z20.324
G1 X65.643 Y19.600 A65.643 Z19.600
G1 X66.326 Y18.782 A66.326 Z18.782
G1 X66.899 Y17.882 A66.899 Z17.882
G1 X67.351 Y16.915 A67.351 Z16.915
G1 X67.674 Y15.899 A67.674 Z15.899
G1 X67.864 Y14.849 A67.864 Z14.849
G1 X67.917 Y13.784 A67.917 Z13.784
G1 X67.832 Y12.720 A67.832 Z12.720
G1 X67.610 Y11.677 A67.610 Z11.677
G1 X67.256 Y10.671 A67.256 Z10.671
G1 X66.775 Y9.719 A66.775 Z9.719
G1 X66.175 Y8.836 A66.175 Z8.836
G1 X65.467 Y8.039 A65.467 Z8.039
G1 X64.661 Y7.340 A64.661 Z7.340
G1 X63.772 Y6.750 A63.772 Z6.750
G1 X62.815 Y6.280 A62.815 Z6.280
G1 X61.804 Y5.937 A61.804 Z5.937
G1 X60.758 Y5.727 A60.758 Z5.727
G1 X60.758 Y5.727 A60.758 Z5.727
G1 X59.943 Y5.914 A59.943 Z5.914
G1 X59.134 Y6.099 A59.134 Z6.099
G1 X58.333 Y6.283 A58.333 Z6.283
G1 X57.538 Y6.467 A57.538 Z6.467
G1 X56.750 Y6.649 A56.750 Z6.649
G1 X55.969 Y6.830 A55.969 Z6.830
G1 X55.194 Y7.010 A55.194 Z7.010
G1 X54.427 Y7.189 A54.427 Z7.189
G1 X53.665 Y7.367 A53.665 Z7.367
G1 X52.911 Y7.544 A52.911 Z7.544
G1 X52.162 Y7.720 A52.162 Z7.720
G1 X51.420 Y7.896 A51.420 Z7.896
G1 X50.685 Y8.070 A50.685 Z8.070
G1 X49.955 Y8.243 A49.955 Z8.243
G1 X49.232 Y8.415 A49.232 Z8.415
G1 X48.515 Y8.587 A48.515 Z8.587
G1 X47.804 Y8.757 A47.804 Z8.757
G1 X47.099 Y8.927 A47.099 Z8.927
G1 X46.400 Y9.095 A46.400 Z9.095
G1 X45.707 Y9.263 A45.707 Z9.263
G1 X45.019 Y9.430 A45.019 Z9.430
G1 X44.337 Y9.596 A44.337 Z9.596
G1 X43.661 Y9.761 A43.661 Z9.761
G1 X42.991 Y9.926 A42.991 Z9.926
G1 X42.326 Y10.089 A42.326 Z10.089
G1 X41.666 Y10.252 A41.666 Z10.252
G1 X41.012 Y10.413 A41.012 Z10.413
G1 X40.363 Y10.574 A40.363 Z10.574
G1 X39.719 Y10.735 A39.719 Z10.735
G1 X39.081 Y10.894 A39.081 Z10.894
G1 X38.448 Y11.053 A38.448 Z11.053
G1 X37.820 Y11.210 A37.820 Z11.210
G1 X37.196 Y11.368 A37.196 Z11.368
G1 X36.578 Y11.524 A36.578 Z11.524
G1 X35.965 Y11.680 A35.965 Z11.680
G1 X35.356 Y11.834 A35.356 Z11.834
G1 X34.752 Y11.989 A34.752 Z11.989
G1 X34.153 Y12.142 A34.153 Z12.142
G1 X33.559 Y12.295 A33.559 Z12.295
G1 X32.969 Y12.447 A32.969 Z12.447
G1 X32.383 Y12.598 A32.383 Z12.598
G1 X31.802 Y12.749 A31.802 Z12.749
G1 X31.225 Y12.899 A31.225 Z12.899
G1 X30.653 Y13.048 A30.653 Z13.048
G1 X30.084 Y13.197 A30.084 Z13.197
G1 X29.520 Y13.345 A29.520 Z13.345
G1 X28.960 Y13.493 A28.960 Z13.493
G1 X28.404 Y13.640 A28.404 Z13.640
G1 X27.852 Y13.786 A27.852 Z13.786
G1 X27.304 Y13.932 A27.304 Z13.932
G1 X26.760 Y14.077 A26.760 Z14.077
G1 X26.219 Y14.222 A26.219 Z14.222
G1 X25.682 Y14.366 A25.682 Z14.366
G1 X25.149 Y14.509 A25.149 Z14.509
G1 X24.619 Y14.652 A24.619 Z14.652
G1 X24.093 Y14.795 A24.093 Z14.795
G1 X23.570 Y14.936 A23.570 Z14.936
G1 X23.051 Y15.078 A23.051 Z15.078
G1 X22.535 Y15.219 A22.535 Z15.219
G1 X22.022 Y15.359 A22.022 Z15.359
G1 X21.513 Y15.499 A21.513 Z15.499
G1 X21.006 Y15.639 A21.006 Z15.639
G1 X20.502 Y15.778 A20.502 Z15.778
G1 X20.002 Y15.916 A20.002 Z15.916
G1 X19.504 Y16.054 A19.504 Z16.054
G1 X19.010 Y16.192 A19.010 Z16.192
G1 X18.518 Y16.329 A18.518 Z16.329
G1 X18.028 Y16.466 A18.028 Z16.466
G1 X17.542 Y16.603 A17.542 Z16.603
G1 X17.058 Y16.739 A17.058 Z16.739
G1 X16.576 Y16.874 A16.576 Z16.874
G1 X16.097 Y17.010 A16.097 Z17.010
G1 X15.620 Y17.145 A15.620 Z17.145
G1 X15.146 Y17.279 A15.146 Z17.279
G1 X14.674 Y17.414 A14.674 Z17.414
G1 X14.204 Y17.548 A14.204 Z17.548
G1 X13.736 Y17.681 A13.736 Z17.681
G1 X13.270 Y17.815 A13.270 Z17.815
G1 X12.807 Y17.948 A12.807 Z17.948
G1 X12.345 Y18.081 A12.345 Z18.081
G1 X11.885 Y18.213 A11.885 Z18.213
G1 X11.427 Y18.345 A11.427 Z18.345
G1 X10.971 Y18.477 A10.971 Z18.477
G1 X10.516 Y18.609 A10.516 Z18.609
G1 X10.063 Y18.741 A10.063 Z18.741
G1 X9.611 Y18.872 A9.611 Z18.872
G1 X9.161 Y19.003 A9.161 Z19.003
G1 X8.712 Y19.134 A8.712 Z19.134
G1 X8.265 Y19.265 A8.265 Z19.265
G1 X7.819 Y19.395 A7.819 Z19.395
G1 X7.374 Y19.525 A7.374 Z19.525
G1 X6.931 Y19.656 A6.931 Z19.656
G1 X6.488 Y19.786 A6.488 Z19.786
G1 X6.046 Y19.915 A6.046 Z19.915
G1 X5.606 Y20.045 A5.606 Z20.045
G1 X5.166 Y20.175 A5.166 Z20.175
G1 X4.727 Y20.304 A4.727 Z20.304
G1 X4.289 Y20.434 A4.289 Z20.434
G1 X3.851 Y20.563 A3.851 Z20.563
G1 X3.851 Y20.563 A3.851 Z20.563
G1 X3.769 Y20.575 A3.769 Z20.575
G1 X3.689 Y20.597 A3.689 Z20.597
G1 X3.613 Y20.630 A3.613 Z20.630
G1 X3.542 Y20.673 A3.542 Z20.673
G1 X3.476 Y20.724 A3.476 Z20.724
G1 X3.418 Y20.784 A3.418 Z20.784
G1 X3.369 Y20.850 A3.369 Z20.850
G1 X3.328 Y20.923 A3.328 Z20.923
G1 X3.297 Y21.000 A3.297 Z21.000
G1 X3.277 Y21.080 A3.277 Z21.080
G1 X3.267 Y21.163 A3.267 Z21.163
G1 X3.268 Y21.246 A3.268 Z21.246
G1 X3.280 Y21.328 A3.280 Z21.328
G1 X3.303 Y21.408 A3.303 Z21.408
G1 X3.336 Y21.484 A3.336 Z21.484
G1 X3.378 Y21.556 A3.378 Z21.556
G1 X3.430 Y21.621 A3.430 Z21.621
G1 X3.489 Y21.679 A3.489 Z21.679
G1 X3.556 Y21.729 A3.556 Z21.729
G1 X3.628 Y21.769 A3.628 Z21.769
G1 X3.705 Y21.800 A3.705 Z21.800
G1 X3.786 Y21.820 A3.786 Z21.820
G1 X3.868 Y21.830 A3.868 Z21.830
G1 X3.951 Y21.829 A3.951 Z21.829
G1 X3.951 Y21.829 A3.951 Z21.829
G1 X-5.000 Y21.985 A-5.000 Z21.985
G1 X-4.850 Y21.432 A-4.850 Z21.432
G1 X8.915 Y16.929 A8.915 Z16.929
G1 X8.915 Y16.929 A8.915 Z16.929
G1 X9.730 Y16.743 A9.730 Z16.743
G1 X10.539 Y16.558 A10.539 Z16.558
G1 X11.340 Y16.373 A11.340 Z16.373
G1 X12.135 Y16.190 A12.135 Z16.190
G1 X12.923 Y16.008 A12.923 Z16.008
G1 X13.704 Y15.827 A13.704 Z15.827
G1 X14.479 Y15.647 A14.479 Z15.647
G1 X15.246 Y15.468 A15.246 Z15.468
G1 X16.008 Y15.290 A16.008 Z15.290
G1 X16.762 Y15.112 A16.762 Z15.112
G1 X17.511 Y14.936 A17.511 Z14.936
G1 X18.253 Y14.761 A18.253 Z14.761
G1 X18.988 Y14.587 A18.988 Z14.587
G1 X19.718 Y14.414 A19.718 Z14.414
G1 X20.441 Y14.241 A20.441 Z14.241
G1 X21.158 Y14.070 A21.158 Z14.070
G1 X21.869 Y13.900 A21.869 Z13.900
G1 X22.574 Y13.730 A22.574 Z13.730
G1 X23.273 Y13.561 A23.273 Z13.561
G1 X23.966 Y13.394 A23.966 Z13.394
G1 X24.654 Y13.227 A24.654 Z13.227
G1 X25.336 Y13.061 A25.336 Z13.061
G1 X26.012 Y12.896 A26.012 Z12.896
G1 X26.682 Y12.731 A26.682 Z12.731
G1 X27.347 Y12.568 A27.347 Z12.568
G1 X28.007 Y12.405 A28.007 Z12.405
G1 X28.661 Y12.243 A28.661 Z12.243
G1 X29.310 Y12.082 A29.310 Z12.082
G1 X29.954 Y11.922 A29.954 Z11.922
G1 X30.592 Y11.763 A30.592 Z11.763
G1 X31.225 Y11.604 A31.225 Z11.604
G1 X31.853 Y11.446 A31.853 Z11.446
G1 X32.477 Y11.289 A32.477 Z11.289
G1 X33.095 Y11.133 A33.095 Z11.133
G1 X33.708 Y10.977 A33.708 Z10.977
G1 X34.317 Y10.822 A34.317 Z10.822
G1 X34.921 Y10.668 A34.921 Z10.668
G1 X35.520 Y10.515 A35.520 Z10.515
G1 X36.114 Y10.362 A36.114 Z10.362
G1 X36.704 Y10.210 A36.704 Z10.210
G1 X37.290 Y10.058 A37.290 Z10.058
G1 X37.871 Y9.908 A37.871 Z9.908
G1 X38.448 Y9.758 A38.448 Z9.758
G1 X39.020 Y9.608 A39.020 Z9.608
G1 X39.588 Y9.460 A39.588 Z9.460
G1 X40.153 Y9.311 A40.153 Z9.311
G1 X40.713 Y9.164 A40.713 Z9.164
G1 X41.269 Y9.017 A41.269 Z9.017
G1 X41.821 Y8.871 A41.821 Z8.871
G1 X42.369 Y8.725 A42.369 Z8.725
G1 X42.913 Y8.580 A42.913 Z8.580
G1 X43.454 Y8.435 A43.454 Z8.435
G1 X43.991 Y8.291 A43.991 Z8.291
G1 X44.524 Y8.148 A44.524 Z8.148
G1 X45.054 Y8.005 A45.054 Z8.005
G1 X45.580 Y7.862 A45.580 Z7.862
G1 X46.102 Y7.720 A46.102 Z7.720
G1 X46.622 Y7.579 A46.622 Z7.579
G1 X47.138 Y7.438 A47.138 Z7.438
G1 X47.651 Y7.298 A47.651 Z7.298
G1 X48.160 Y7.158 A48.160 Z7.158
G1 X48.667 Y7.018 A48.667 Z7.018
G1 X49.170 Y6.879 A49.170 Z6.879
G1 X49.671 Y6.741 A49.671 Z6.741
G1 X50.169 Y6.602 A50.169 Z6.602
G1 X50.663 Y6.465 A50.663 Z6.465
G1 X51.155 Y6.327 A51.155 Z6.327
G1 X51.645 Y6.191 A51.645 Z6.191
G1 X52.131 Y6.054 A52.131 Z6.054
G1 X52.615 Y5.918 A52.615 Z5.918
G1 X53.097 Y5.782 A53.097 Z5.782
G1 X53.576 Y5.647 A53.576 Z5.647
G1 X54.053 Y5.512 A54.053 Z5.512
G1 X54.527 Y5.377 A54.527 Z5.377
G1 X54.999 Y5.243 A54.999 Z5.243
G1 X55.469 Y5.109 A55.469 Z5.109
G1 X55.937 Y4.975 A55.937 Z4.975
G1 X56.402 Y4.842 A56.402 Z4.842
G1 X56.866 Y4.709 A56.866 Z4.709
G1 X57.328 Y4.576 A57.328 Z4.576
G1 X57.788 Y4.444 A57.788 Z4.444
G1 X58.246 Y4.311 A58.246 Z4.311
G1 X58.702 Y4.179 A58.702 Z4.179
G1 X59.157 Y4.048 A59.157 Z4.048
G1 X59.610 Y3.916 A59.610 Z3.916
G1 X60.062 Y3.785 A60.062 Z3.785
G1 X60.512 Y3.654 A60.512 Z3.654
G1 X60.960 Y3.523 A60.960 Z3.523
G1 X61.408 Y3.392 A61.408 Z3.392
G1 X61.854 Y3.262 A61.854 Z3.262
G1 X62.299 Y3.131 A62.299 Z3.131
G1 X62.742 Y3.001 A62.742 Z3.001
G1 X63.185 Y2.871 A63.185 Z2.871
G1 X63.627 Y2.741 A63.627 Z2.741
G1 X64.067 Y2.612 A64.067 Z2.612
G1 X64.507 Y2.482 A64.507 Z2.482
G1 X64.946 Y2.352 A64.946 Z2.352
G1 X65.384 Y2.223 A65.384 Z2.223
G1 X65.821 Y2.094 A65.821 Z2.094
G1 X65.821 Y2.094 A65.821 Z2.094
G1 X65.904 Y2.082 A65.904 Z2.082
G1 X65.984 Y2.059 A65.984 Z2.059
G1 X66.060 Y2.027 A66.060 Z2.027
G1 X66.131 Y1.984 A66.131 Z1.984
G1 X66.197 Y1.933 A66.197 Z1.933
G1 X66.254 Y1.873 A66.254 Z1.873
G1 X66.304 Y1.807 A66.304 Z1.807
G1 X66.345 Y1.734 A66.345 Z1.734
G1 X66.375 Y1.657 A66.375 Z1.657
G1 X66.396 Y1.576 A66.396 Z1.576
G1 X66.406 Y1.494 A66.406 Z1.494
G1 X66.405 Y1.411 A66.405 Z1.411
G1 X66.393 Y1.329 A66.393 Z1.329
G1 X66.370 Y1.249 A66.370 Z1.249
G1 X66.337 Y1.172 A66.337 Z1.172
G1 X66.295 Y1.101 A66.295 Z1.101
G1 X66.243 Y1.036 A66.243 Z1.036
G1 X66.184 Y0.978 A66.184 Z0.978
G1 X66.117 Y0.928 A66.117 Z0.928
G1 X66.045 Y0.888 A66.045 Z0.888
G1 X65.968 Y0.857 A65.968 Z0.857
G1 X65.887 Y0.836 A65.887 Z0.836
G1 X65.805 Y0.827 A65.805 Z0.827
G1 X65.722 Y0.828 A65.722 Z0.828
G1 X65.722 Y0.828 A65.722 Z0.828
G1 X7.627 Y0.844 A7.627 Z0.844
G1 X7.627 Y0.844 A7.627 Z0.844
G1 X6.628 Y1.217 A6.628 Z1.217
G1 X5.685 Y1.716 A5.685 Z1.716
G1 X4.814 Y2.333 A4.814 Z2.333
G1 X4.030 Y3.056 A4.030 Z3.056
G1 X3.346 Y3.875 A3.346 Z3.875
G1 X2.774 Y4.775 A2.774 Z4.775
G1 X2.322 Y5.741 A2.322 Z5.741
G1 X1.999 Y6.758 A1.999 Z6.758
G1 X1.809 Y7.808 A1.809 Z7.808
G1 X1.756 Y8.873 A1.756 Z8.873
G1 X1.841 Y9.936 A1.841 Z9.936
G1 X2.063 Y10.980 A2.063 Z10.980
G1 X2.417 Y11.986 A2.417 Z11.986
G1 X2.898 Y12.938 A2.898 Z12.938
G1 X3.498 Y13.820 A3.498 Z13.820
G1 X4.206 Y14.618 A4.206 Z14.618
G1 X5.012 Y15.317 A5.012 Z15.317
G1 X5.901 Y15.907 A5.901 Z15.907
G1 X6.858 Y16.377 A6.858 Z16.377
G1 X7.869 Y16.720 A7.869 Z16.720
G1 X8.915 Y16.929 A8.915 Z16.929
G1 X8.915 Y16.929 A8.915 Z16.929
G1 X-4.850 Y21.432 A-4.850 Z21.432

M5 ; Turn off wire heater
M2 ; End program
