; Generated G-code for 4-axis hot wire cutter
; 2D profile cutting mode - left and right sides move together

G17 ; XY plane
G21 ; Set units to millimeters
G90 ; Use absolute positioning
G40 ; Cutter compensation off
G49 ; Tool length offset compensation off
G64 ; Path Control Mode - Continuous mode
G94 ; Set feed rate
G200.0 ; mm/min
M3 S1000 ; Set wire current
G4 P2 ; Wait 2 seconds for wire to heat up

G0 X-5.000 Y0.471 A-5.000 Z0.471; Rapid move to start position
G1 X-4.382 Y0.471 A-4.382 Z0.471
G1 X-4.382 Y0.471 A-4.382 Z0.471
G1 X-4.339 Y1.202 A-4.339 Z1.202
G1 X-4.295 Y1.930 A-4.295 Z1.930
G1 X-4.247 Y2.652 A-4.247 Z2.652
G1 X-4.196 Y3.368 A-4.196 Z3.368
G1 X-4.141 Y4.078 A-4.141 Z4.078
G1 X-4.083 Y4.781 A-4.083 Z4.781
G1 X-4.021 Y5.479 A-4.021 Z5.479
G1 X-3.955 Y6.169 A-3.955 Z6.169
G1 X-3.885 Y6.854 A-3.885 Z6.854
G1 X-3.811 Y7.531 A-3.811 Z7.531
G1 X-3.733 Y8.202 A-3.733 Z8.202
G1 X-3.650 Y8.866 A-3.650 Z8.866
G1 X-3.563 Y9.523 A-3.563 Z9.523
G1 X-3.471 Y10.172 A-3.471 Z10.172
G1 X-3.374 Y10.814 A-3.374 Z10.814
G1 X-3.272 Y11.448 A-3.272 Z11.448
G1 X-3.165 Y12.074 A-3.165 Z12.074
G1 X-3.052 Y12.692 A-3.052 Z12.692
G1 X-2.933 Y13.302 A-2.933 Z13.302
G1 X-2.808 Y13.903 A-2.808 Z13.903
G1 X-2.677 Y14.496 A-2.677 Z14.496
G1 X-2.539 Y15.079 A-2.539 Z15.079
G1 X-2.394 Y15.653 A-2.394 Z15.653
G1 X-2.241 Y16.217 A-2.241 Z16.217
G1 X-2.081 Y16.771 A-2.081 Z16.771
G1 X-1.913 Y17.315 A-1.913 Z17.315
G1 X-1.736 Y17.848 A-1.736 Z17.848
G1 X-1.550 Y18.369 A-1.550 Z18.369
G1 X-1.354 Y18.878 A-1.354 Z18.878
G1 X-1.147 Y19.374 A-1.147 Z19.374
G1 X-0.929 Y19.858 A-0.929 Z19.858
G1 X-0.700 Y20.327 A-0.700 Z20.327
G1 X-0.458 Y20.781 A-0.458 Z20.781
G1 X-0.202 Y21.220 A-0.202 Z21.220
G1 X0.069 Y21.641 A0.069 Z21.641
G1 X0.355 Y22.044 A0.355 Z22.044
G1 X0.658 Y22.427 A0.658 Z22.427
G1 X0.979 Y22.787 A0.979 Z22.787
G1 X1.319 Y23.122 A1.319 Z23.122
G1 X1.678 Y23.431 A1.678 Z23.431
G1 X2.057 Y23.709 A2.057 Z23.709
G1 X2.455 Y23.954 A2.455 Z23.954
G1 X2.867 Y24.161 A2.867 Z24.161
G1 X3.295 Y24.330 A3.295 Z24.330
G1 X3.732 Y24.457 A3.732 Z24.457
G1 X4.136 Y24.539 A4.136 Z24.539
G1 X4.558 Y24.586 A4.558 Z24.586
G1 X5.043 Y24.600 A5.043 Z24.600
G1 X5.510 Y24.573 A5.510 Z24.573
G1 X5.918 Y24.517 A5.918 Z24.517
G1 X6.341 Y24.428 A6.341 Z24.428
G1 X6.792 Y24.301 A6.792 Z24.301
G1 X7.236 Y24.142 A7.236 Z24.142
G1 X7.675 Y23.954 A7.675 Z23.954
G1 X8.109 Y23.737 A8.109 Z23.737
G1 X8.536 Y23.494 A8.536 Z23.494
G1 X8.956 Y23.228 A8.956 Z23.228
G1 X9.370 Y22.940 A9.370 Z22.940
G1 X9.777 Y22.630 A9.777 Z22.630
G1 X10.178 Y22.302 A10.178 Z22.302
G1 X10.574 Y21.956 A10.574 Z21.956
G1 X10.963 Y21.592 A10.963 Z21.592
G1 X11.347 Y21.212 A11.347 Z21.212
G1 X11.726 Y20.817 A11.726 Z20.817
G1 X12.100 Y20.407 A12.100 Z20.407
G1 X12.470 Y19.983 A12.470 Z19.983
G1 X12.835 Y19.545 A12.835 Z19.545
G1 X13.196 Y19.095 A13.196 Z19.095
G1 X13.553 Y18.633 A13.553 Z18.633
G1 X13.907 Y18.158 A13.907 Z18.158
G1 X14.256 Y17.672 A14.256 Z17.672
G1 X14.602 Y17.175 A14.602 Z17.175
G1 X14.944 Y16.668 A14.944 Z16.668
G1 X15.283 Y16.149 A15.283 Z16.149
G1 X15.618 Y15.621 A15.618 Z15.621
G1 X15.951 Y15.083 A15.951 Z15.083
G1 X16.280 Y14.535 A16.280 Z14.535
G1 X16.606 Y13.979 A16.606 Z13.979
G1 X16.929 Y13.413 A16.929 Z13.413
G1 X17.249 Y12.838 A17.249 Z12.838
G1 X17.567 Y12.254 A17.567 Z12.254
G1 X17.881 Y11.663 A17.881 Z11.663
G1 X18.193 Y11.063 A18.193 Z11.063
G1 X18.502 Y10.455 A18.502 Z10.455
G1 X18.808 Y9.839 A18.808 Z9.839
G1 X19.111 Y9.215 A19.111 Z9.215
G1 X19.412 Y8.584 A19.412 Z8.584
G1 X19.710 Y7.945 A19.710 Z7.945
G1 X20.005 Y7.299 A20.005 Z7.299
G1 X20.298 Y6.646 A20.298 Z6.646
G1 X20.588 Y5.986 A20.588 Z5.986
G1 X20.875 Y5.319 A20.875 Z5.319
G1 X21.160 Y4.646 A21.160 Z4.646
G1 X21.442 Y3.965 A21.442 Z3.965
G1 X21.722 Y3.278 A21.722 Z3.278
G1 X21.999 Y2.585 A21.999 Z2.585
G1 X22.274 Y1.885 A22.274 Z1.885
G1 X22.546 Y1.179 A22.546 Z1.179
G1 X22.817 Y0.471 A22.817 Z0.471
G1 X22.817 Y0.471 A22.817 Z0.471
G1 X-4.382 Y0.471 A-4.382 Z0.471
G1 X-4.382 Y0.471 A-4.382 Z0.471
G1 X-5.000 Y0.471 A-5.000 Z0.471

M5 ; Turn off wire heater
M2 ; End program
