; Generated G-code for 4-axis hot wire cutter
; 2D profile cutting mode - left and right sides move together

G17 ; XY plane
G21 ; Set units to millimeters
G90 ; Use absolute positioning
G40 ; Cutter compensation off
G49 ; Tool length offset compensation off
G64 ; Path Control Mode - Continuous mode
G94 ; Set feed rate
G200.0 ; mm/min
M3 S1000 ; Set wire current
G4 P2 ; Wait 2 seconds for wire to heat up

G0 X305.659 Y5.064 A23.675 Z6.081; Rapid move to start position
G1 X235.659 Y5.064 A-46.325 Z6.081
G1 X235.659 Y5.064 A-46.325 Z6.081
G1 X233.437 Y5.421 A-45.896 Z6.021
G1 X231.221 Y5.784 A-45.470 Z5.957
G1 X229.013 Y6.151 A-45.045 Z5.889
G1 X226.811 Y6.523 A-44.622 Z5.818
G1 X224.615 Y6.899 A-44.201 Z5.743
G1 X222.426 Y7.278 A-43.781 Z5.663
G1 X220.242 Y7.659 A-43.363 Z5.582
G1 X218.065 Y8.044 A-42.947 Z5.496
G1 X215.894 Y8.430 A-42.532 Z5.409
G1 X213.729 Y8.818 A-42.118 Z5.318
G1 X211.569 Y9.208 A-41.707 Z5.224
G1 X209.416 Y9.599 A-41.296 Z5.129
G1 X207.268 Y9.991 A-40.887 Z5.031
G1 X205.125 Y10.383 A-40.480 Z4.931
G1 X202.988 Y10.776 A-40.074 Z4.829
G1 X200.857 Y11.167 A-39.668 Z4.725
G1 X198.731 Y11.558 A-39.265 Z4.620
G1 X196.609 Y11.948 A-38.862 Z4.514
G1 X194.493 Y12.335 A-38.460 Z4.408
G1 X192.382 Y12.722 A-38.060 Z4.299
G1 X190.276 Y13.105 A-37.661 Z4.192
G1 X188.175 Y13.487 A-37.262 Z4.082
G1 X186.079 Y13.866 A-36.865 Z3.973
G1 X183.987 Y14.241 A-36.469 Z3.863
G1 X181.900 Y14.614 A-36.073 Z3.752
G1 X179.818 Y14.983 A-35.679 Z3.643
G1 X177.740 Y15.349 A-35.285 Z3.532
G1 X175.667 Y15.710 A-34.892 Z3.424
G1 X173.599 Y16.068 A-34.500 Z3.313
G1 X171.535 Y16.422 A-34.109 Z3.204
G1 X169.476 Y16.771 A-33.719 Z3.096
G1 X167.420 Y17.116 A-33.329 Z2.987
G1 X165.370 Y17.456 A-32.941 Z2.881
G1 X163.324 Y17.792 A-32.553 Z2.773
G1 X161.282 Y18.121 A-32.165 Z2.668
G1 X159.244 Y18.447 A-31.779 Z2.562
G1 X157.211 Y18.767 A-31.393 Z2.459
G1 X155.182 Y19.081 A-31.008 Z2.357
G1 X153.157 Y19.391 A-30.623 Z2.255
G1 X151.136 Y19.694 A-30.240 Z2.155
G1 X149.120 Y19.992 A-29.857 Z2.055
G1 X147.108 Y20.284 A-29.474 Z1.959
G1 X145.100 Y20.571 A-29.093 Z1.861
G1 X143.096 Y20.852 A-28.711 Z1.767
G1 X141.096 Y21.127 A-28.331 Z1.673
G1 X139.101 Y21.397 A-27.951 Z1.580
G1 X137.110 Y21.659 A-27.572 Z1.491
G1 X135.123 Y21.918 A-27.194 Z1.399
G1 X133.140 Y22.170 A-26.816 Z1.312
G1 X131.162 Y22.417 A-26.439 Z1.223
G1 X129.187 Y22.658 A-26.063 Z1.137
G1 X127.217 Y22.893 A-25.688 Z1.052
G1 X125.251 Y23.123 A-25.313 Z0.967
G1 X123.289 Y23.346 A-24.939 Z0.886
G1 X121.332 Y23.566 A-24.565 Z0.802
G1 X119.378 Y23.777 A-24.192 Z0.722
G1 X117.429 Y23.985 A-23.820 Z0.641
G1 X115.484 Y24.185 A-23.449 Z0.562
G1 X113.543 Y24.380 A-23.078 Z0.485
G1 X111.606 Y24.570 A-22.708 Z0.407
G1 X109.673 Y24.752 A-22.339 Z0.333
G1 X107.745 Y24.930 A-21.970 Z0.256
G1 X105.820 Y25.100 A-21.602 Z0.183
G1 X103.900 Y25.265 A-21.235 Z0.110
G1 X101.984 Y25.423 A-20.868 Z0.038
G1 X100.072 Y25.574 A-20.502 Z-0.031
G1 X98.164 Y25.720 A-20.137 Z-0.102
G1 X96.260 Y25.856 A-19.772 Z-0.168
G1 X94.361 Y25.990 A-19.408 Z-0.239
G1 X92.465 Y26.114 A-19.045 Z-0.304
G1 X90.574 Y26.233 A-18.682 Z-0.371
G1 X88.686 Y26.345 A-18.320 Z-0.437
G1 X86.803 Y26.448 A-17.958 Z-0.500
G1 X84.924 Y26.546 A-17.598 Z-0.565
G1 X83.049 Y26.633 A-17.237 Z-0.624
G1 X81.178 Y26.717 A-16.878 Z-0.688
G1 X79.312 Y26.789 A-16.519 Z-0.747
G1 X77.449 Y26.854 A-16.160 Z-0.806
G1 X75.591 Y26.909 A-15.803 Z-0.863
G1 X73.736 Y26.955 A-15.446 Z-0.917
G1 X71.886 Y26.993 A-15.089 Z-0.973
G1 X70.040 Y27.019 A-14.733 Z-1.022
G1 X68.199 Y27.039 A-14.377 Z-1.075
G1 X66.361 Y27.045 A-14.023 Z-1.123
G1 X64.528 Y27.043 A-13.668 Z-1.170
G1 X62.700 Y27.030 A-13.315 Z-1.215
G1 X60.876 Y27.004 A-12.962 Z-1.255
G1 X59.056 Y26.970 A-12.609 Z-1.299
G1 X57.241 Y26.920 A-12.258 Z-1.334
G1 X55.430 Y26.863 A-11.906 Z-1.373
G1 X53.624 Y26.790 A-11.555 Z-1.406
G1 X51.822 Y26.706 A-11.205 Z-1.438
G1 X50.025 Y26.610 A-10.856 Z-1.469
G1 X48.234 Y26.497 A-10.507 Z-1.493
G1 X46.447 Y26.374 A-10.158 Z-1.521
G1 X44.666 Y26.232 A-9.811 Z-1.539
G1 X42.889 Y26.080 A-9.464 Z-1.562
G1 X41.118 Y25.909 A-9.117 Z-1.577
G1 X39.353 Y25.722 A-8.772 Z-1.591
G1 X37.593 Y25.520 A-8.426 Z-1.603
G1 X35.840 Y25.294 A-8.082 Z-1.606
G1 X34.092 Y25.058 A-7.738 Z-1.616
G1 X32.351 Y24.793 A-7.395 Z-1.611
G1 X30.616 Y24.514 A-7.052 Z-1.614
G1 X28.890 Y24.209 A-6.710 Z-1.607
G1 X27.171 Y23.880 A-6.369 Z-1.597
G1 X25.459 Y23.529 A-6.027 Z-1.589
G1 X23.759 Y23.141 A-5.689 Z-1.563
G1 X22.066 Y22.734 A-5.346 Z-1.552
G1 X20.387 Y22.280 A-5.010 Z-1.515
G1 X18.719 Y21.797 A-4.670 Z-1.489
G1 X17.066 Y21.267 A-4.334 Z-1.446
G1 X15.432 Y20.687 A-4.000 Z-1.393
G1 X13.813 Y20.065 A-3.660 Z-1.347
G1 X12.230 Y19.358 A-3.337 Z-1.258
G1 X10.665 Y18.603 A-2.994 Z-1.201
G1 X9.159 Y17.730 A-2.680 Z-1.078
G1 X7.692 Y16.782 A-2.353 Z-0.972
G1 X6.290 Y15.716 A-2.019 Z-0.845
G1 X5.055 Y14.440 A-1.742 Z-0.647
G1 X3.939 Y12.997 A-1.355 Z-0.469
G1 X3.566 Y11.191 A-1.429 Z-0.084
G1 X3.566 Y11.191 A-1.429 Z-0.084
G1 X4.438 Y9.644 A-1.435 Z0.309
G1 X6.021 Y8.825 A-1.899 Z0.259
G1 X7.572 Y8.010 A-2.213 Z0.398
G1 X9.172 Y7.310 A-2.542 Z0.501
G1 X10.817 Y6.744 A-2.886 Z0.544
G1 X12.477 Y6.228 A-3.223 Z0.610
G1 X14.152 Y5.758 A-3.562 Z0.659
G1 X15.833 Y5.302 A-3.897 Z0.728
G1 X17.526 Y4.890 A-4.238 Z0.774
G1 X19.230 Y4.510 A-4.579 Z0.814
G1 X20.943 Y4.164 A-4.922 Z0.845
G1 X22.664 Y3.849 A-5.268 Z0.865
G1 X24.392 Y3.552 A-5.612 Z0.890
G1 X26.128 Y3.284 A-5.960 Z0.899
G1 X27.868 Y3.028 A-6.306 Z0.919
G1 X29.615 Y2.797 A-6.654 Z0.926
G1 X31.368 Y2.581 A-7.002 Z0.934
G1 X33.126 Y2.383 A-7.352 Z0.937
G1 X34.890 Y2.202 A-7.702 Z0.934
G1 X36.658 Y2.032 A-8.053 Z0.935
G1 X38.432 Y1.879 A-8.405 Z0.926
G1 X40.210 Y1.732 A-8.756 Z0.926
G1 X41.993 Y1.600 A-9.109 Z0.918
G1 X43.781 Y1.475 A-9.463 Z0.912
G1 X45.573 Y1.359 A-9.817 Z0.905
G1 X47.370 Y1.254 A-10.172 Z0.894
G1 X49.171 Y1.154 A-10.527 Z0.887
G1 X50.977 Y1.065 A-10.884 Z0.873
G1 X52.786 Y0.980 A-11.241 Z0.865
G1 X54.601 Y0.904 A-11.599 Z0.852
G1 X56.420 Y0.834 A-11.957 Z0.840
G1 X58.243 Y0.769 A-12.317 Z0.827
G1 X60.071 Y0.711 A-12.677 Z0.812
G1 X61.903 Y0.655 A-13.038 Z0.800
G1 X63.739 Y0.607 A-13.400 Z0.784
G1 X65.580 Y0.561 A-13.762 Z0.772
G1 X67.425 Y0.520 A-14.125 Z0.758
G1 X69.275 Y0.483 A-14.489 Z0.744
G1 X71.129 Y0.449 A-14.854 Z0.730
G1 X72.988 Y0.420 A-15.220 Z0.714
G1 X74.851 Y0.394 A-15.587 Z0.700
G1 X76.718 Y0.372 A-15.954 Z0.684
G1 X78.590 Y0.352 A-16.322 Z0.670
G1 X80.466 Y0.336 A-16.692 Z0.654
G1 X82.347 Y0.323 A-17.061 Z0.638
G1 X84.233 Y0.312 A-17.432 Z0.622
G1 X86.123 Y0.305 A-17.804 Z0.605
G1 X88.017 Y0.300 A-18.177 Z0.590
G1 X89.916 Y0.298 A-18.550 Z0.573
G1 X91.820 Y0.297 A-18.924 Z0.557
G1 X93.728 Y0.299 A-19.300 Z0.540
G1 X95.640 Y0.303 A-19.676 Z0.524
G1 X97.558 Y0.309 A-20.053 Z0.507
G1 X99.480 Y0.318 A-20.430 Z0.490
G1 X101.406 Y0.327 A-20.809 Z0.474
G1 X103.338 Y0.340 A-21.189 Z0.456
G1 X105.274 Y0.353 A-21.570 Z0.440
G1 X107.214 Y0.369 A-21.951 Z0.423
G1 X109.160 Y0.386 A-22.333 Z0.406
G1 X111.110 Y0.404 A-22.717 Z0.389
G1 X113.065 Y0.424 A-23.101 Z0.373
G1 X115.025 Y0.444 A-23.486 Z0.356
G1 X116.989 Y0.467 A-23.873 Z0.340
G1 X118.959 Y0.489 A-24.260 Z0.324
G1 X120.933 Y0.513 A-24.648 Z0.309
G1 X122.912 Y0.537 A-25.037 Z0.293
G1 X124.896 Y0.562 A-25.427 Z0.279
G1 X126.885 Y0.589 A-25.818 Z0.264
G1 X128.878 Y0.615 A-26.210 Z0.249
G1 X130.877 Y0.643 A-26.603 Z0.235
G1 X132.881 Y0.671 A-26.996 Z0.221
G1 X134.889 Y0.699 A-27.391 Z0.207
G1 X136.903 Y0.729 A-27.787 Z0.194
G1 X138.921 Y0.759 A-28.184 Z0.180
G1 X140.945 Y0.789 A-28.582 Z0.167
G1 X142.974 Y0.820 A-28.981 Z0.154
G1 X145.008 Y0.851 A-29.381 Z0.141
G1 X147.046 Y0.883 A-29.781 Z0.128
G1 X149.090 Y0.915 A-30.183 Z0.116
G1 X151.140 Y0.946 A-30.586 Z0.104
G1 X153.194 Y0.978 A-30.990 Z0.092
G1 X155.253 Y1.011 A-31.395 Z0.081
G1 X157.318 Y1.043 A-31.801 Z0.070
G1 X159.388 Y1.075 A-32.208 Z0.059
G1 X161.463 Y1.108 A-32.616 Z0.049
G1 X163.544 Y1.140 A-33.025 Z0.039
G1 X165.629 Y1.173 A-33.435 Z0.029
G1 X167.720 Y1.205 A-33.846 Z0.020
G1 X169.816 Y1.238 A-34.258 Z0.010
G1 X171.918 Y1.271 A-34.672 Z0.001
G1 X174.025 Y1.304 A-35.086 Z-0.008
G1 X176.138 Y1.337 A-35.501 Z-0.017
G1 X178.255 Y1.369 A-35.918 Z-0.025
G1 X180.379 Y1.402 A-36.335 Z-0.034
G1 X182.507 Y1.434 A-36.754 Z-0.042
G1 X184.641 Y1.467 A-37.173 Z-0.049
G1 X186.781 Y1.499 A-37.594 Z-0.057
G1 X188.926 Y1.531 A-38.016 Z-0.064
G1 X191.077 Y1.562 A-38.439 Z-0.071
G1 X193.233 Y1.594 A-38.863 Z-0.078
G1 X195.395 Y1.625 A-39.288 Z-0.084
G1 X197.562 Y1.656 A-39.714 Z-0.090
G1 X199.735 Y1.687 A-40.142 Z-0.096
G1 X201.914 Y1.718 A-40.570 Z-0.102
G1 X204.098 Y1.749 A-41.000 Z-0.108
G1 X206.288 Y1.780 A-41.431 Z-0.113
G1 X208.484 Y1.811 A-41.862 Z-0.119
G1 X210.686 Y1.841 A-42.295 Z-0.124
G1 X212.893 Y1.872 A-42.729 Z-0.130
G1 X215.106 Y1.903 A-43.165 Z-0.135
G1 X217.325 Y1.933 A-43.601 Z-0.140
G1 X219.549 Y1.964 A-44.039 Z-0.146
G1 X221.780 Y1.995 A-44.477 Z-0.151
G1 X224.016 Y2.025 A-44.917 Z-0.156
G1 X226.258 Y2.056 A-45.358 Z-0.162
G1 X228.506 Y2.087 A-45.800 Z-0.167
G1 X230.760 Y2.118 A-46.243 Z-0.173
G1 X233.020 Y2.149 A-46.688 Z-0.178
G1 X235.286 Y2.180 A-47.133 Z-0.184
G1 X235.286 Y2.180 A-47.133 Z-0.184
G1 X235.659 Y5.064 A-46.325 Z6.080
G1 X235.659 Y5.064 A-46.325 Z6.080
G1 X305.659 Y5.064 A23.675 Z6.080

M5 ; Turn off wire heater
M2 ; End program
