; Generated G-code for 4-axis hot wire cutter
; 2D profile cutting mode - left and right sides move together

G17 ; XY plane
G21 ; Set units to millimeters
G90 ; Use absolute positioning
G40 ; Cutter compensation off
G49 ; Tool length offset compensation off
G64 ; Path Control Mode - Continuous mode
G94 ; Set feed rate
G200.0 ; mm/min
M3 S1000 ; Set wire current
G4 P2 ; Wait 2 seconds for wire to heat up

G0 X148.886 Y23.632 A-133.534 Z21.267; Rapid move to start position
G1 X158.886 Y23.632 A-123.534 Z21.267
G1 X158.886 Y23.632 A-123.534 Z21.267
G1 X158.441 Y23.626 A-121.268 Z21.299
G1 X157.996 Y23.620 A-119.008 Z21.330
G1 X157.553 Y23.615 A-116.754 Z21.361
G1 X157.111 Y23.609 A-114.506 Z21.392
G1 X156.670 Y23.604 A-112.263 Z21.422
G1 X156.230 Y23.599 A-110.027 Z21.453
G1 X155.791 Y23.593 A-107.797 Z21.484
G1 X155.354 Y23.588 A-105.572 Z21.514
G1 X154.917 Y23.583 A-103.353 Z21.545
G1 X154.482 Y23.577 A-101.140 Z21.576
G1 X154.048 Y23.572 A-98.933 Z21.606
G1 X153.615 Y23.567 A-96.732 Z21.637
G1 X153.183 Y23.561 A-94.536 Z21.668
G1 X152.753 Y23.555 A-92.346 Z21.699
G1 X152.323 Y23.550 A-90.161 Z21.729
G1 X151.894 Y23.544 A-87.983 Z21.760
G1 X151.467 Y23.538 A-85.810 Z21.791
G1 X151.041 Y23.532 A-83.642 Z21.823
G1 X150.616 Y23.525 A-81.480 Z21.854
G1 X150.192 Y23.519 A-79.324 Z21.885
G1 X149.769 Y23.512 A-77.173 Z21.917
G1 X149.347 Y23.504 A-75.028 Z21.949
G1 X148.926 Y23.497 A-72.889 Z21.981
G1 X148.506 Y23.489 A-70.755 Z22.013
G1 X148.088 Y23.481 A-68.626 Z22.046
G1 X147.670 Y23.473 A-66.503 Z22.078
G1 X147.254 Y23.464 A-64.385 Z22.111
G1 X146.839 Y23.456 A-62.272 Z22.144
G1 X146.424 Y23.447 A-60.165 Z22.177
G1 X146.011 Y23.438 A-58.064 Z22.209
G1 X145.599 Y23.428 A-55.967 Z22.242
G1 X145.188 Y23.418 A-53.877 Z22.275
G1 X144.778 Y23.409 A-51.791 Z22.307
G1 X144.368 Y23.398 A-49.710 Z22.340
G1 X143.960 Y23.388 A-47.635 Z22.372
G1 X143.553 Y23.377 A-45.565 Z22.405
G1 X143.148 Y23.367 A-43.501 Z22.437
G1 X142.743 Y23.355 A-41.441 Z22.469
G1 X142.339 Y23.344 A-39.387 Z22.501
G1 X141.936 Y23.332 A-37.338 Z22.533
G1 X141.534 Y23.319 A-35.294 Z22.565
G1 X141.133 Y23.307 A-33.255 Z22.596
G1 X140.733 Y23.294 A-31.221 Z22.628
G1 X140.335 Y23.281 A-29.192 Z22.659
G1 X139.937 Y23.268 A-27.169 Z22.689
G1 X139.540 Y23.254 A-25.150 Z22.719
G1 X139.144 Y23.241 A-23.137 Z22.748
G1 X138.749 Y23.226 A-21.128 Z22.777
G1 X138.355 Y23.213 A-19.124 Z22.805
G1 X137.962 Y23.198 A-17.126 Z22.833
G1 X137.570 Y23.184 A-15.132 Z22.859
G1 X137.179 Y23.169 A-13.143 Z22.885
G1 X136.789 Y23.154 A-11.159 Z22.910
G1 X136.400 Y23.139 A-9.180 Z22.935
G1 X136.012 Y23.123 A-7.206 Z22.959
G1 X135.625 Y23.108 A-5.237 Z22.981
G1 X135.239 Y23.091 A-3.272 Z23.003
G1 X134.854 Y23.075 A-1.312 Z23.024
G1 X134.470 Y23.058 A0.643 Z23.044
G1 X134.086 Y23.042 A2.593 Z23.062
G1 X133.704 Y23.025 A4.538 Z23.079
G1 X133.322 Y23.008 A6.479 Z23.095
G1 X132.942 Y22.991 A8.415 Z23.108
G1 X132.562 Y22.974 A10.346 Z23.120
G1 X132.183 Y22.958 A12.273 Z23.130
G1 X131.805 Y22.940 A14.195 Z23.139
G1 X131.428 Y22.924 A16.112 Z23.145
G1 X131.052 Y22.908 A18.025 Z23.149
G1 X130.677 Y22.891 A19.933 Z23.151
G1 X130.303 Y22.875 A21.837 Z23.150
G1 X129.929 Y22.858 A23.736 Z23.148
G1 X129.557 Y22.842 A25.630 Z23.143
G1 X129.185 Y22.826 A27.520 Z23.135
G1 X128.814 Y22.810 A29.405 Z23.125
G1 X128.444 Y22.794 A31.286 Z23.111
G1 X128.075 Y22.778 A33.163 Z23.096
G1 X127.707 Y22.764 A35.035 Z23.076
G1 X127.339 Y22.747 A36.902 Z23.054
G1 X126.973 Y22.733 A38.765 Z23.027
G1 X126.607 Y22.718 A40.623 Z22.998
G1 X126.242 Y22.704 A42.478 Z22.965
G1 X125.878 Y22.690 A44.327 Z22.928
G1 X125.515 Y22.675 A46.172 Z22.887
G1 X125.152 Y22.663 A48.013 Z22.840
G1 X124.791 Y22.648 A49.850 Z22.792
G1 X124.430 Y22.636 A51.682 Z22.737
G1 X124.069 Y22.621 A53.510 Z22.679
G1 X123.710 Y22.608 A55.333 Z22.614
G1 X123.351 Y22.596 A57.152 Z22.543
G1 X122.994 Y22.583 A58.966 Z22.467
G1 X122.637 Y22.574 A60.776 Z22.382
G1 X122.280 Y22.561 A62.582 Z22.294
G1 X121.925 Y22.553 A64.383 Z22.194
G1 X121.570 Y22.543 A66.180 Z22.088
G1 X121.215 Y22.536 A67.972 Z21.973
G1 X120.862 Y22.530 A69.759 Z21.848
G1 X120.509 Y22.522 A71.542 Z21.716
G1 X120.157 Y22.521 A73.320 Z21.568
G1 X119.805 Y22.513 A75.094 Z21.416
G1 X119.455 Y22.514 A76.863 Z21.246
G1 X119.104 Y22.511 A78.626 Z21.065
G1 X118.755 Y22.514 A80.385 Z20.867
G1 X118.407 Y22.522 A82.137 Z20.651
G1 X118.058 Y22.528 A83.885 Z20.420
G1 X117.712 Y22.548 A85.625 Z20.163
G1 X117.365 Y22.558 A87.361 Z19.896
G1 X117.020 Y22.583 A89.088 Z19.599
G1 X116.675 Y22.603 A90.810 Z19.284
G1 X116.332 Y22.633 A92.523 Z18.937
G1 X115.990 Y22.673 A94.226 Z18.558
G1 X115.650 Y22.719 A95.920 Z18.146
G1 X115.315 Y22.789 A97.601 Z17.690
G1 X114.975 Y22.838 A99.276 Z17.219
G1 X114.639 Y22.904 A100.936 Z16.704
G1 X114.294 Y22.947 A102.581 Z16.138
G1 X113.966 Y23.050 A104.180 Z15.438
G1 X113.652 Y23.189 A105.731 Z14.623
G1 X113.187 Y23.138 A107.315 Z13.804
G1 X113.182 Y23.532 A108.187 Z12.257
G1 X113.182 Y23.532 A108.187 Z12.257
G1 X113.108 Y23.916 A107.814 Z10.451
G1 X113.494 Y24.095 A106.698 Z9.007
G1 X113.772 Y24.293 A105.462 Z7.732
G1 X114.105 Y24.420 A104.061 Z6.666
G1 X114.433 Y24.526 A102.594 Z5.718
G1 X114.747 Y24.649 A101.087 Z4.844
G1 X115.089 Y24.706 A99.523 Z4.090
G1 X115.413 Y24.795 A97.939 Z3.383
G1 X115.752 Y24.841 A96.321 Z2.760
G1 X116.086 Y24.893 A94.686 Z2.181
G1 X116.423 Y24.936 A93.034 Z1.650
G1 X116.763 Y24.963 A91.365 Z1.168
G1 X117.099 Y25.000 A89.687 Z0.713
G1 X117.442 Y25.010 A87.994 Z0.307
G1 X117.780 Y25.036 A86.293 Z-0.082
G1 X118.122 Y25.045 A84.582 Z-0.433
G1 X118.463 Y25.055 A82.863 Z-0.761
G1 X118.804 Y25.062 A81.136 Z-1.067
G1 X119.148 Y25.059 A79.401 Z-1.345
G1 X119.490 Y25.064 A77.661 Z-1.610
G1 X119.835 Y25.053 A75.913 Z-1.847
G1 X120.179 Y25.051 A74.160 Z-2.072
G1 X120.524 Y25.038 A72.400 Z-2.275
G1 X120.870 Y25.025 A70.635 Z-2.461
G1 X121.216 Y25.010 A68.864 Z-2.633
G1 X121.564 Y24.986 A67.087 Z-2.784
G1 X121.911 Y24.969 A65.306 Z-2.927
G1 X122.260 Y24.940 A63.519 Z-3.049
G1 X122.608 Y24.916 A61.727 Z-3.162
G1 X122.958 Y24.886 A59.931 Z-3.259
G1 X123.308 Y24.854 A58.129 Z-3.343
G1 X123.659 Y24.821 A56.323 Z-3.415
G1 X124.010 Y24.781 A54.512 Z-3.472
G1 X124.362 Y24.746 A52.697 Z-3.522
G1 X124.715 Y24.703 A50.877 Z-3.556
G1 X125.067 Y24.663 A49.053 Z-3.582
G1 X125.421 Y24.617 A47.224 Z-3.595
G1 X125.775 Y24.570 A45.391 Z-3.598
G1 X126.130 Y24.523 A43.554 Z-3.591
G1 X126.486 Y24.470 A41.712 Z-3.571
G1 X126.842 Y24.421 A39.867 Z-3.546
G1 X127.198 Y24.365 A38.016 Z-3.507
G1 X127.555 Y24.311 A36.162 Z-3.462
G1 X127.913 Y24.254 A34.304 Z-3.406
G1 X128.272 Y24.195 A32.441 Z-3.341
G1 X128.631 Y24.136 A30.574 Z-3.269
G1 X128.990 Y24.072 A28.704 Z-3.186
G1 X129.350 Y24.012 A26.829 Z-3.099
G1 X129.711 Y23.947 A24.950 Z-3.001
G1 X130.073 Y23.884 A23.066 Z-2.897
G1 X130.435 Y23.819 A21.179 Z-2.786
G1 X130.797 Y23.752 A19.288 Z-2.667
G1 X131.161 Y23.686 A17.392 Z-2.542
G1 X131.525 Y23.616 A15.492 Z-2.409
G1 X131.889 Y23.550 A13.589 Z-2.272
G1 X132.255 Y23.479 A11.681 Z-2.126
G1 X132.621 Y23.409 A9.769 Z-1.975
G1 X132.987 Y23.338 A7.853 Z-1.817
G1 X133.355 Y23.264 A5.932 Z-1.652
G1 X133.723 Y23.192 A4.008 Z-1.482
G1 X134.091 Y23.115 A2.079 Z-1.304
G1 X134.461 Y23.041 A0.147 Z-1.122
G1 X134.831 Y22.963 A-1.790 Z-0.932
G1 X135.202 Y22.885 A-3.731 Z-0.738
G1 X135.573 Y22.807 A-5.676 Z-0.537
G1 X135.945 Y22.726 A-7.625 Z-0.330
G1 X136.318 Y22.646 A-9.579 Z-0.118
G1 X136.691 Y22.562 A-11.537 Z0.102
G1 X137.065 Y22.481 A-13.498 Z0.324
G1 X137.440 Y22.396 A-15.464 Z0.555
G1 X137.816 Y22.311 A-17.435 Z0.790
G1 X138.192 Y22.224 A-19.409 Z1.031
G1 X138.569 Y22.136 A-21.387 Z1.278
G1 X138.947 Y22.048 A-23.370 Z1.529
G1 X139.325 Y21.957 A-25.357 Z1.788
G1 X139.704 Y21.867 A-27.348 Z2.051
G1 X140.084 Y21.774 A-29.344 Z2.321
G1 X140.464 Y21.681 A-31.343 Z2.596
G1 X140.845 Y21.586 A-33.347 Z2.876
G1 X141.227 Y21.489 A-35.355 Z3.164
G1 X141.609 Y21.392 A-37.367 Z3.455
G1 X141.992 Y21.292 A-39.383 Z3.754
G1 X142.376 Y21.193 A-41.404 Z4.057
G1 X142.761 Y21.091 A-43.429 Z4.366
G1 X143.146 Y20.989 A-45.458 Z4.681
G1 X143.532 Y20.885 A-47.491 Z5.001
G1 X143.918 Y20.779 A-49.529 Z5.327
G1 X144.305 Y20.675 A-51.571 Z5.656
G1 X144.693 Y20.567 A-53.617 Z5.992
G1 X145.082 Y20.461 A-55.668 Z6.332
G1 X145.472 Y20.352 A-57.723 Z6.677
G1 X145.862 Y20.243 A-59.782 Z7.026
G1 X146.253 Y20.135 A-61.846 Z7.379
G1 X146.645 Y20.024 A-63.915 Z7.738
G1 X147.038 Y19.915 A-65.988 Z8.099
G1 X147.431 Y19.805 A-68.065 Z8.465
G1 X147.826 Y19.695 A-70.147 Z8.833
G1 X148.221 Y19.585 A-72.234 Z9.206
G1 X148.618 Y19.475 A-74.326 Z9.582
G1 X149.015 Y19.366 A-76.422 Z9.961
G1 X149.413 Y19.256 A-78.523 Z10.343
G1 X149.813 Y19.149 A-80.630 Z10.726
G1 X150.213 Y19.040 A-82.741 Z11.112
G1 X150.615 Y18.933 A-84.857 Z11.500
G1 X151.017 Y18.827 A-86.978 Z11.890
G1 X151.421 Y18.722 A-89.104 Z12.281
G1 X151.826 Y18.619 A-91.236 Z12.672
G1 X152.232 Y18.516 A-93.373 Z13.065
G1 X152.640 Y18.417 A-95.515 Z13.456
G1 X153.049 Y18.319 A-97.663 Z13.849
G1 X153.459 Y18.223 A-99.817 Z14.239
G1 X153.871 Y18.130 A-101.976 Z14.629
G1 X154.284 Y18.039 A-104.141 Z15.018
G1 X154.699 Y17.951 A-106.313 Z15.404
G1 X155.116 Y17.866 A-108.490 Z15.789
G1 X155.534 Y17.784 A-110.673 Z16.170
G1 X155.953 Y17.705 A-112.862 Z16.549
G1 X156.375 Y17.630 A-115.058 Z16.924
G1 X156.798 Y17.558 A-117.260 Z17.296
G1 X157.222 Y17.490 A-119.469 Z17.664
G1 X157.649 Y17.427 A-121.684 Z18.026
G1 X158.078 Y17.367 A-123.906 Z18.384
G1 X158.078 Y17.367 A-123.906 Z18.384
G1 X158.886 Y23.632 A-123.534 Z21.267
G1 X158.886 Y23.632 A-123.534 Z21.267
G1 X88.886 Y23.632 A-193.534 Z21.267

M5 ; Turn off wire heater
M2 ; End program
